X:1
T:Title
%%score ( 1 2 ) { ( 3 5 ) | 4 }
L:1/8
Q:1/4=95
M:4/4
K:G
V:1 treble nm="Grand Piano, Soprano"
V:2 treble 
V:3 bass nm="Choir Pad, Every One That Thirsteth"
V:5 bass 
V:4 bass 
V:1
 [Gd]>c [DB]>[DB] [DB]>[DB] [DB]>[CA] | [B,G]>[DB] D4 G2 | %2
w: By~William~Thomas~Giffe * * * * * * *||
 [DG]>[DF] [CE]>[DF] [EG]>[EA] [DB]>[DB] | [DA]>[EG] [FA]6 | %4
w: ||
 [Fd]>[Fc] [GB]>[GB] [DB]>[DB] [DB]>[CA] | [B,G]>[DB] [CE]4 [EG]2 | %6
w: ||
 [EG]>[EA] [DB]>[DB] [DA]>[DG] [DA]2 | [DF]2 [DG]6 | z2 d6 | z2 c6 | z4 z2 .d2 | .d2 A6 | z2 B6 | %13
w: |||||||
 z2 c6 | [DB]>[Dc] [Gd]>[GB] [FA]>[Fc] [DB]2 | [DA]2 [DG]6- | [DG]2 z2 z4 |] %17
w: ||||
V:2
 x8 | x8 | x8 | x8 | x8 | x8 | x8 | x8 | B>c G2 G2 D>B | [GA]>B F2 F2 F2 | %10
 [Fc]>[Fc] [GB]>[GB] [GB]>[GB] G-[Ge] | G-[GB] F2 F>F F2 | d>c z2 D>D D2 | A>G z2 E>E E2 | x8 | %15
 x8 | x8 |] %17
V:3
 B,>A, G,>G, G,>G, G,>G, | G,>G, B,6 | G,>G, G,>G, G,>G, G,>G, | A,>A, A,6 | %4
 A,>A, G,>G, G,>G, G,>G, | G,>G, G,4[K:treble] C2 | C>C G,>G, C>B, C2 | C2[K:bass] B,6 | z2 B,6 | %9
 C>B, A,6 | A,>A, G,>G, G,>G, B,C | B,G, C2 C>B, A,2 | z4 G,>G, G,2 | z4 G,>G, G,2 | %14
 G,>A, B,>D C>A, G,2 | C2 B,6- | B,2 z2 z4 |] %17
V:4
 G,2 z2 z4 | z2 G,6 | B,,>B,, C,>C, C,>C, z2 | F,>E, D,6 | D,>D, z2 z4 | z2 C,6 | %6
 C,>C, D,>D, D,>D, D,2 | D,2 G,,6 | z2 [G,,G,]2 G,,2 G,,2 | [G,,G,]2 D,2 D,2 D,2 | %10
 D,>D, z2 z2 G,2 | .G,2 D,2 D,>D, D,2 | z8 | z4 C,>C, C,2 | z z/ G,/ G,>G, D,>D, D,2 | D,2 G,,6- | %16
 G,,2 z2 z4 |] %17
V:5
 x8 | x8 | x8 | x8 | x8 | x6[K:treble] x2 | x8 | x2[K:bass] x6 | G,>A, z2 G,2 G,>G, | x8 | x8 | %11
 x8 | x8 | x8 | x8 | x8 | x8 |] %17

